icons/tag-24.svg

<svg width="24" height="24" viewBox="0 0 24 24" fill="none" xmlns="http://www.w3.org/2000/svg">
<path d="M7.75 6.5C7.05964 6.5 6.5 7.05964 6.5 7.75C6.5 8.44036 7.05964 9 7.75 9C8.44036 9 9 8.44036 9 7.75C9 7.05964 8.44036 6.5 7.75 6.5Z" fill="#24292E"/>
<path fill-rule="evenodd" clip-rule="evenodd" d="M2.5 1C1.67157 1 1 1.67157 1 2.5V10.9393C1 11.3372 1.15804 11.7187 1.43934 12L11.6893 22.25C12.2751 22.8358 13.2249 22.8358 13.8107 22.25L22.25 13.8107C22.8358 13.2249 22.8358 12.2751 22.25 11.6893L12 1.43934C11.7187 1.15804 11.3372 1 10.9393 1H2.5ZM2.5 2.5H10.9393L21.1893 12.75L12.75 21.1893L2.5 10.9393V2.5Z" fill="#24292E"/>
</svg>

<svg xmlns="http://www.w3.org/2000/svg" width="24" height="24" viewBox="0 0 24 24"><path d="M7.75 6.5a1.25 1.25 0 100 2.5 1.25 1.25 0 000-2.5z"/><path fill-rule="evenodd" d="M2.5 1A1.5 1.5 0 001 2.5v8.44c0 .397.158.779.44 1.06l10.25 10.25a1.5 1.5 0 002.12 0l8.44-8.44a1.5 1.5 0 000-2.12L12 1.44A1.5 1.5 0 0010.94 1H2.5zm0 1.5h8.44l10.25 10.25-8.44 8.44L2.5 10.94V2.5z"/></svg>
